assets/img/youtube-icon.svg

<svg xmlns="http://www.w3.org/2000/svg" width="20" height="14" fill="none"><path fill="#58546A" d="m8 10 5.19-3L8 4zm11.56-7.83c.13.47.22 1.1.28 1.9.07.8.1 1.49.1 2.09L20 7c0 2.19-.16 3.8-.44 4.83-.25.9-.83 1.48-1.73 1.73-.47.13-1.33.22-2.65.28-1.3.07-2.49.1-3.59.1L10 14c-4.19 0-6.8-.16-7.83-.44-.9-.25-1.48-.83-1.73-1.73-.13-.47-.22-1.1-.28-1.9-.07-.8-.1-1.49-.1-2.09L0 7c0-2.19.16-3.8.44-4.83.25-.9.83-1.48 1.73-1.73C2.64.31 3.5.22 4.82.16c1.3-.07 2.49-.1 3.59-.1L10 0c4.19 0 6.8.16 7.83.44.9.25 1.48.83 1.73 1.73"/></svg>

<svg width="20" height="14" viewBox="0 0 20 14" fill="none" xmlns="http://www.w3.org/2000/svg">
<path d="M8 10L13.19 7L8 4V10ZM19.56 2.17C19.69 2.64 19.78 3.27 19.84 4.07C19.91 4.87 19.94 5.56 19.94 6.16L20 7C20 9.19 19.84 10.8 19.56 11.83C19.31 12.73 18.73 13.31 17.83 13.56C17.36 13.69 16.5 13.78 15.18 13.84C13.88 13.91 12.69 13.94 11.59 13.94L10 14C5.81 14 3.2 13.84 2.17 13.56C1.27 13.31 0.69 12.73 0.44 11.83C0.31 11.36 0.22 10.73 0.16 9.93C0.0900001 9.13 0.0599999 8.44 0.0599999 7.84L0 7C0 4.81 0.16 3.2 0.44 2.17C0.69 1.27 1.27 0.69 2.17 0.44C2.64 0.31 3.5 0.22 4.82 0.16C6.12 0.0899998 7.31 0.0599999 8.41 0.0599999L10 0C14.19 0 16.8 0.16 17.83 0.44C18.73 0.69 19.31 1.27 19.56 2.17Z" fill="#58546A"/>
</svg>
